X:319
T:What's a' the Steer?
D:Wick S.C.D., The Sound of the North (1970)
O:Scotland
Z:Nigel Gatherer
L:1/8
M:4/4
K:A
e2|c2 c>B c2 c<e|c2 c>B c2 Ac|e>fe<c f2 e>c|e>fe<c B2 c>B|
A>BA<F A2 c>B|A>BA<F A3 B|c<e e2 f<aa>f|e<cB>c A2:|
<end>
<start>
